plus-lock-open.svg

<svg fill="currentColor" viewBox="0 0 24 24"><path d="M11 5v6H5v2h6v6h2v-6h6v-2h-6V5zm8 10c-1.05 0-2.1.8-2.1 1.82v1.82c-.45 0-.9.43-.9.86v2.55c0 .51.45.95.9.95h4.13c.52 0 .97-.44.97-.87v-2.55c0-.51-.45-.94-.9-.94h-3.22v-1.82c0-.58.52-.95 1.12-.95s1.13.37 1.13.95v.36h.97v-.36C21.1 15.8 20.05 15 19 15"/></svg>

<svg  viewBox="0 0 24 24" fill="currentColor"><path  d="M11 5V11H5V13H11V19H13V13H19V11H13V5H11M19 15C17.95 15 16.9 15.8 16.9 16.82V18.64C16.45 18.64 16 19.07 16 19.5V22.05C16 22.56 16.45 23 16.9 23H21.03C21.55 23 22 22.56 22 22.13V19.58C22 19.07 21.55 18.64 21.1 18.64H17.88V16.82C17.88 16.24 18.4 15.87 19 15.87S20.13 16.24 20.13 16.82V17.18H21.1V16.82C21.1 15.8 20.05 15 19 15Z"/></svg>
